client/resources/iconsets/breeze/src/svg/16x16/icon_appt_meeting_cancel.svg

<svg
   xmlns="http://www.w3.org/2000/svg"
   width="16"
   height="16"
   viewBox="0 0 16 16"
>
  <path
     style="fill:#6d6d70"
     d="M 3.6796875,1 C 3.3026272,1 3,1.3026272 3,1.6796875 L 3,2 2,2 C 1.446,2 1,2.446 1,3 l 0,11 c 0,0.554 0.446,1 1,1 l 4,0 0,-2 -3,0 0,-8 10,0 0,1 2,0 0,-3 C 15,2.446 14.554,2 14,2 L 13,2 13,1.6796875 C 13,1.3026272 12.697374,1 12.320312,1 L 10.679688,1 C 10.302626,1 10,1.3026272 10,1.6796875 L 10,2 6,2 6,1.6796875 C 6,1.3026272 5.6973728,1 5.3203125,1 Z M 5,6 C 4.446,6 4,6.446 4,7 4,7.554 4.446,8 5,8 5.554,8 6,7.554 6,7 6,6.446 5.554,6 5,6 Z M 5,9 C 4.446,9 4,9.446 4,10 4,10.554 4.446,11 5,11 5.554,11 6,10.554 6,10 6,9.446 5.554,9 5,9 Z"
     id="path4" />
  <path
     style="fill:#f03d21"
     d="m 15.77809,7.2218077 a 0.9999904,1 0 0 0 -1.414199,0 0.9999904,1 0 0 0 -0.0014,0.00138 l -2.827,2.8270473 -2.8284004,-2.8284273 a 0.9999904,1 0 0 0 -1.4142,0 0.9999904,1 0 0 0 0,1.4142136 l 2.8284004,2.8284267 -2.8284004,2.828426 a 0.9999904,1 0 0 0 0,1.414214 0.9999904,1 0 0 0 1.4142,0 l 2.8284004,-2.828426 2.827019,2.827045 a 0.9999904,1 0 0 0 0.0014,0.0014 0.9999904,1 0 0 0 1.414199,0 0.9999904,1 0 0 0 0,-1.414214 0.9999904,1 0 0 0 -0.0014,-0.0014 l -2.827018,-2.827045 2.827018,-2.8270457 a 0.9999904,1 0 0 0 0.0014,-0.00138 0.9999904,1 0 0 0 0,-1.4142136 z"
     id="path6" />
</svg>

<svg xmlns="http://www.w3.org/2000/svg" width="16" height="16"><path d="M3.68 1a.68.68 0 0 0-.68.68V2H2a1 1 0 0 0-1 1v11a1 1 0 0 0 1 1h4v-2H3V5h10v1h2V3a1 1 0 0 0-1-1h-1v-.32a.68.68 0 0 0-.68-.68H10.68a.68.68 0 0 0-.68.68V2H6v-.32A.68.68 0 0 0 5.32 1zM5 6a1 1 0 1 0 0 2 1 1 0 1 0 0-2zm0 3a1 1 0 1 0 0 2 1 1 0 1 0 0-2z" fill="#6d6d70"/><path d="M15.778 7.222a1 1 0 0 0-1.416.001l-2.827 2.827-2.828-2.828a1 1 0 0 0-1.414 1.414l2.828 2.828-2.828 2.828a1 1 0 0 0 1.414 1.414l2.828-2.828 2.827 2.827a1 1 0 0 0 1.416.001 1 1 0 0 0-.001-1.416l-2.827-2.827 2.827-2.827a1 1 0 0 0 .001-1.416z" fill="#f03d21"/></svg>
